X: 4
T: Nine Points Of Roguery, The
Z: ceili
S: https://thesession.org/tunes/429#setting52076
R: reel
M: 4/4
L: 1/8
K: Dmaj
|:FE | "D" D2 FD "A" GEFE | "D" DEFG ABAF | "D" D2 FD "A" GEFA | "G" BE E/E/E BE E/E/E |
"D" D2 FD "A" GEFE |"D" DEFG ABAF |"D" D2 FD "A" GEFA | "D" d/d/d dc d2 :|
|:AB | "C" =c3 A "G" B3 G | "D" A/A/A AB AGFE | "D" D2 FD "A" GEFA | "G" BE E/E/E BE E/E/E |
"C" =c3 A "G" B3 G | "D" Adcd fdAF |D2 "D" FD "A" GEFA|"D" d/d/d dc d2 :|
|:fe | "D" d2 fd "A" gefe | "D" defg abaf | "D" d2 fd "A" gefa | "G" be e/e/e be e/e/e |
"D" d2 fd "A" gefe |"D" defg abaf |"D" d2 fd "A" gece | "D" d/d/d dc d2 :|
|:AB | "C" =c3 A "G" B3 G | "D" A/A/A AB AGFE | "D" D2 FD "A" GEFA | "G" BE E/E/E BE E/E/E |
"C" =c3 A "G" B3 G | "D" Adcd fdAF |D2 "D" FD "A" GEFA|"D" d/d/d dc d2 :|

